build/img/icons/error.svg

<svg width="26" height="23" viewBox="0 0 26 23" fill="none" xmlns="http://www.w3.org/2000/svg">
<path fill-rule="evenodd" clip-rule="evenodd" d="M13.0001 0L0.00976562 22.5H25.9905L13.0001 0ZM13.0001 2L1.74182 21.5H24.2585L13.0001 2Z" fill="#FF3030"/>
<path fill-rule="evenodd" clip-rule="evenodd" d="M12.5 19V13H13.5V19H12.5Z" fill="#FF3030"/>
<path fill-rule="evenodd" clip-rule="evenodd" d="M12.5 11V10H13.5V11H12.5Z" fill="#FF3030"/>
</svg>

<svg viewBox="0 0 26 23" fill="none" xmlns="http://www.w3.org/2000/svg"><path fill-rule="evenodd" clip-rule="evenodd" d="M13 0L.01 22.5h25.98L13 0zm0 2L1.742 21.5h22.517L13 2z" fill="#FF3030"/><path fill-rule="evenodd" clip-rule="evenodd" d="M12.5 19v-6h1v6h-1zm0-8v-1h1v1h-1z" fill="#FF3030"/></svg>
